X:1
T:Kreisler Preludium and Allegro
T:Kreisler Preludium and Allegro 
T:Viola transcription
T:Fritz Kreisler
C:Fritz Kreisler
L:1/8
M:4/4
K:C
V:1 alto nm="Viola" snm="Vla."
V:1
!f! !>!A,2 !>!E,2 !>!A,2"^Allegro" !>!E2 | !>!A2 !>!E2 !>!A2 !tenuto!e2 |"^simile" a2 A2 e2 E2 | %3
 A2 A,2 E2 E,2 | a2 A2 e2 E2 | A2 A,2 E2 E,2 | f2 A2 c2 F2 | B2 D2 F2 G,2 | e2 G2 B2 E2 | %9
 A2 C2 E2 F,2 | d2 F2 A2 D2 | E2 B2 c2 A2 |{AB} A2 ^G2 A2 B2 | E2 e2 a2!<(! g2!<)! | f2 g2 a2 c'2 | %15
 b2 a2 g2 d2 | e2 g2 c2 B2 | A2 c2 F2 E2 | ^D2 ^F2"^rit." B2 ^f2 | ^g2 e2 a2 A2 | f2 D2 d2 a2 | %21
 e'2 A2 e2 vE,2 | %22
[M:3/4]"^Andante" (vA,2- A,/E,/)!tenuto!A,/!tenuto!B,/ C/!tenuto!A,/!tenuto!C/!tenuto!D/ | %23
 !tenuto!E/!tenuto!C/!tenuto!E/!tenuto!^G/ !tenuto!A/!tenuto!E/!tenuto!A/!tenuto!B/ !tenuto!c/!tenuto!A/!tenuto!c/!tenuto!d/ | %24
 e2- e/(^c/_B/A/) G/B/G/F/ | E/G/E/D/ (^C/E/C/)_B,/ (A,/B,/A,/G,/) | %26
 (F,2- F,/D,/)F,/A,/ _B,/F,/B,/C/ | D/_B,/D/E/ F/D/F/_B/ (d/B/d/f/) | (a2- a/^f/)_e/d/ c/e/c/_B/ | %29
 A/c/A/G/ (^F/A/F/)_E/ (D/E/D/C/) | (_B,2- B,/G,/)B,/D/ _E/B,/E/G/ | (^C2- C/A,/)C/E/ A/G/F/E/ | %32
 (D2- D/A,/)D/E/ F/D/F/A/ | c2- c/A,/C/^D/ ^F/A/(c/A/) |!f!"^allargando" e3 B/c/ B/^G/E/G/ | %35
 B/c/B/^G/ E/F/E/C/ B,/E/C/B,/ | !fermata!E,6 |[M:4/4] !>!A,2 !>!E,2 !>!A,2 !>!E2 | %38
"^simile" A2 E2 A2 e2 | a2 A2 e2 E2 | A2 A,2 E2 E,2 | a2 A2 e2 E2 | A2 A,2 E2 E,2 | f2 A2 c2 F2 | %44
 B2 D2 F2 G,2 | e2 G2 B2 E2 | A2 C2 E2 F,2 | d2 F2 A2 D2 | E2 B2 c2 A2 |{AB} A2 ^G2 A2 B2 | %50
 E2 e2 a2 g2 | f2 g2 a2 c'2 | b2 a2 g2 d2 | e2 g2 c2 B2 | A2 c2 F2 E2 | ^D2 ^F2 B2 ^f2 | %56
 ^g2 e2 a2 A2 | f2 D2 d2 a2 | e'2 A2 e2 vE,2 | !fermata!vA,8 |[M:3/4] (E | %61
!p!!p!"^allegro molto moderato" .A)G/F/ .E.D.C.B, | %62
 !tenuto!A,/!tenuto!B,/!tenuto!A,/!tenuto!B,/ !tenuto!C/!tenuto!D/!tenuto!C/!tenuto!D/ !tenuto!E/!tenuto!c/!tenuto!B/!tenuto!A/ | %63
"^simile" ^G/B/D/F/ E/D/C/B,/ D/C/B,/A,/ | ^G,/B,/E,/^D,/ E,/^F,/G,/A,/ B,/C/D/E/ | %65
!p! .C/.E/.A/.E/ .D/.F/.A/.F/ .C/.E/.A/.E/ | %66
!f! (D/c/)f/c/ !tenuto!a/!tenuto!c/!tenuto!f/!tenuto!c/ (A/c/A/F/) | %67
!p! .G,/.F/.B/.F/ .G,/.G/.B/.G/ .G,/.F/.B/.F/ |!f! (C/B/)e/B/ g/B/e/B/ (G/B/G/E/) | %69
!p! .A,/.E/.c/.E/ .A,/.F/.c/.E/ .A,/.E/.c/.E/ | (B,/A/)d/A/ f/A/d/A/ (F/A/F/D/) | %71
 ^G,/E/c/E/ A,/E/c/E/ C/E/A/E/ | (E,/B,/)E/^F/ ^G/E/B/G/ e(uE | .A)G/F/ .E.D.C.B, | %74
 A,/B,/A,/B,/ C/D/C/D/ E/c/B/A/ | ^G/B/D/F/ E/D/C/B,/ D/C/B,/A,/ | %76
 ^G,/B,/E,/^D,/ E,/^F,/G,/A,/ B,/C/D/E/ | %77
D/[Be]/[Be]/[DB]/ [CA]/[Ae]/[Ae]/[CA]/ [B,G]/[Ge]/[Ge]/[B,G]/ | %78
 [G,A,]/[EA]/[EA]/[G,A,]/ [F,A,]/[DA]/[DA]/[F,A,]/ [D,C]/[FA]/[FA]/[D,C]/ | %79
 B,/[Ad]/[Ad]/[B,A]/ [B,G]/[Gd]/[Gd]/[B,G]/ [G,F]/[Fd]/[Fd]/[G,F]/ | %80
 [E,D]/[DG]/[DG]/[E,D]/ [E,C]/[CG]/[CG]/[E,C]/ [C,B,]/[B,G]/[B,G]/[C,B,]/ | %81
 A,/[Gc]/[Gc]/[A,G]/ [A,F]/[Fc]/[Fc]/[A,F]/ [G,E]/[Ec]/[Ec]/[G,E]/ | %82
 [G,A,]/[EA]/[EA]/[G,A,]/ [F,A,]/[DA]/[DA]/[F,A,]/ [D,C]/[FA]/[FA]/[D,C]/ | %83
 [E,C]/[EA]/[EA]/[E,C]/ [E,B,]/[EA]/[EA]/[E,B,]/ [E,B,]/[^Ge]/[Ge]/E,/ | %84
 (A,/B,/)C/E/ A/B/c/e/ a z |!f! [C,G,Ec]/A/G/A/ G/E/C/A,/ G,/E,/C,/C/ | %86
 A,/F,/C,/D/ A,/F,/C,/E/ B,/G,/C,/F/ | C/A,/C,/G/ D/B,/C,/A/ E/C/A,/F/ | %88
 D/B,/G/E/ C/A,/F/D/ B,/G,/F,/E,/ |!p! [C,G,Ec]/A/G/A/ G/E/C/A,/ G,/E,/C,/C/ | %90
 A,/F,/C,/D/ A,/F,/C,/E/ B,/G,/C,/F/ | C/A,/C,/G/ D/B,/C,/A/ E/C/A,/F/ | %92
 D/B,/G/E/ C/A,/^F/E/ ^D/B,/A,/^F,/ |!f! [E,B,Ge]/c/B/c/ B/G/^F/E/ B,/G,/E,/E/ | %94
 C/A,/^F/E/ B,/G/E/C/ A/F/E/c/ | A/E/A/^F/ E/B/G/E/ B,/G/E/B,/ | C/A/E/C/ A,/^F/E/B,/ G/E/B,/G,/ | %97
!p! [E,B,Ge]/B/c/B/ G/^F/E/B,/ G,/^F,/E,/E/ | C/A,/^F/E/ B,/G/E/C/ A/F/E/c/ | %99
 A/E/A/^F/ E/B/G/E/ B,/G/E/B,/ | C/A/E/C/ A,/^F/E/B,/ G/E/B,/G,/ | %101
!f! (E,/^D,/)E,/G,/ B,/E/G/B/ e/E/d/E/ | (c/e/)c/A/ G/E/C/A,/ E,/G,/A,/G/ | %103
 (F/D,/)E,/F,/ A,/D/F/A/ d/D/c/D/ | (B/d/)B/G/ F/D/B,/G,/ D,/F,/G,/F/ | %105
 (E/C,/)D,/E,/ G,/C/E/G/ c/C/B/C/ | (A/c/)A/G/ F/C/A,/G,/ F,/A,/C/E/ | %107
 (D/D,/)F,/A,/ B,/D/F/A/ B/D/(A/D/) | ^G/E/B,/E/ G/E/B/E/ e(uE | .A)G/F/ .E.D.C.B, | %110
 A,/B,/A,/B,/ C/D/C/D/ E/c/B/A/ | ^G/B/D/F/ E/D/C/B,/ D/C/B,/A,/ | %112
 ^G,/B,/E,/^D,/ E,/^F,/G,/A,/ B,/C/D/B,/ |!p! TA,(.C/.E/) .A/.E/.c/.A/ .e/.c/.a/.e/ | %114
 Tf(A/d/) .F/.A/.D/.F/ .A,/.D/.D,/.C/ | TB,(G,/B,/) .D/.G/.B/.G/ .d/.B/.g/.d/ | %116
 Te(.c/.e/) .G/.c/.E/.G/ C/E/C,/B,/ | TA,(.F,/.A,/) .C/.F/.A/.F/ .c/.A/.f/.c/ | %118
 Td(.A/.d/) .F/.A/.D/.F/ .A,/.D/.F,/.A,/ | T^G,(.E,/.G,/) .B,/.E/.^G/.E/ .B/.E/.e/.B/ | %120
 Tc(.A/.^F/) .^D/.F/.D/.C/ .A,/.C/.A,/.^F,/ |!f! !tenuto!E,(A,/C/) E/^G/A/B/ c/E/c/A/ | %122
 G/e/A/F/ d/A/E/c/ A/D/B/A/ | E,(A,/C/) E/^G/A/B/ c/E/c/A/ | G/e/A/F/ d/A/E/c/ A/F/B/A/ | %125
 !tenuto!E,(A,/C/) E/^G/A/B/ c/E/c/A/ | G/e/A/F/ d/A/E/c/ A/A/f/A/ | G/e/A/F/ d/A/B/g/ A/A/f/A/ | %128
 G/e/A/c/ a/A/B/g/ A/A/f/A/ | d/b/A/c/ a/A/B/^g/ A/c/a/A/ | d/b/A/f/ d'/A/e/c'/ A/c/a/A/ | %131
 e/c'/A/d/ b/A/B/g/ A/d/b/A/ | c/a/A/A/ f/A/c/a/ A/B/g/A/ | G/g/A/B/ g/A/A/f/ A/F/d/A/ | %134
 A/f/A/G/ e/A/E/c/ A/G/e/A/ | F/d/A/D/ B/A/F/d/ A/E/c/A/ | D/B/A/E/ c/A/F/d/ A/E/c/A/ | %137
 G/e/A/^F/ ^d/A/=F/=d/ A/E/c/A/ | D/B/A/A/ f/A/F/d/ A/D/B/A/ | ^D/c/A/A/ ^f/A/^F/^d/ A/D/c/A/ | %140
 E/^c/A/_B/ g/A/G/e/ A/E/c/A/ | F/d/A/B/ ^g/A/^G/f/ A/F/d/A/ | ^F/^d/A/c/ a/A/A/^f/ A/F/d/A/ | %143
 ^D/c/A/C/ (A/^F/)F/D/ C/A,/^F,/^D,/ |!f! E,[CEA]/[CEA]/ [CEA]v[DFA]v[B,DA]v[DFA] | %145
 v[CEA]E,/E,/ E,v[CEA]v[A,Ec]v[CEA] | v[B,EA]E,/E,/ E,v[B,EA]v[B,EA]v[B,EA] | %147
 v[B,EA]E,/E,/ E,v[B,^Ge]E,ve |!ff! ag/f/ edcB | A/^G/A/B/ Tc/B/c/d/ e/c/B/A/ | %150
 ^G/B/D/F/ E/D/C/B,/ D/C/B,/A,/ | ^G,/B,/E,/^D,/ E,/^F,/G,/A,/ B,/C/D/B,/ | %152
 A,[A,EA]/[B,EA]/ [CEA]v[^CEA]v[FAA]v[EGA] | v[DFA]D,/F,/ A,/D/F/A/ d/f/d/c/ | %154
 B[G,FB]/[G,GB]/ v[G,AB]v[G,AB]v[G,GB]v[G,FB] | v[C,G,EB]C,/E,/ G,/C/E/G/ c/e/c/B/ | %156
 A[F,A,E]/[F,A,E]/ [F,A,E]v[A,EA]v[B,DAA]v[CEA] | v[DFA]D,/F,/ A,/D/F/A/ d/c/B/A/ | %158
 ^G[Ee]/[Ee]/ [Ee]v[A,Ec]v[F,A,DA]v[D,A,F] | E,[Ee]/[Ee]/ [Ee]"_rit."v[A,Ec]v[F,A,DA]v[D,A,F] | %160
 E,[Ee]/[Ee]/ [Ee]v[A,Ec]v[F,A,DA]v[D,A,F] | %161
 [E,B,^Ge]2 !fermata!vE,2- E,/^F,/4^G,/4A,/4B,/4C/4D/4 |"^Andante" E-E DC{A,B,C} PTB,-B,- | %163
!f!B,(3A,/B,/{/D}C/"_rit." B,- B,2 !>!A, | !>!!fermata!A,4- A,-A, | z6 |] %166

